X:1
T:Praise the Lord, Rise Up Rejoicing
T:Tune: Johann Löhner, 1691, adapt.; harm. after chorale version of Johann S. Bach, 1685-1750 Text under copyright; for copyrighted material see Psalter Hymnal 313
T:887 D ALLES IST AN GOTTES SEGEN www.hymnary.org/text/praise_the_lord_rise_up_rejoicing
T:Praise the Lord, Rise Up Rejoicing
T:This tune is in the public domain. You may freely use this score for personal and congregational worship. If you reproduce the score, please credit Hymnary.org as the source. 
T:This tune is in the public domain. You may freely use this score for personal and congregational worship. If you reproduce the score, please credit Hymnary.org as the source. 
Z:This tune is in the public domain. You may freely use this score for personal and congregational worship. If you reproduce the score, please credit Hymnary.org as the source.
%%score ( 1 2 ) ( 3 4 )
L:1/8
M:4/4
K:F
V:1 treble nm="SOPRANO ALTO" snm="S. A."
V:2 treble 
V:3 bass nm="TENOR BASS" snm="T. B."
V:4 bass 
V:1
 F2 F2 c2 c2 | B2 c2 A2 F2 | A2 A2 G2 G2 | F2 G2 E2 C2 | G2 G2 AG FE | D3 C C4 | c2 c2 c2 d2 | %7
 B2 c2 A2 F2 |1 A2 A2 G2 G2 | F2 G2 E2 C2 | F2 G2 AB cB | A2 G2 F4 |] %12
V:2
 C2 C2 C2 F2 | G2 G2 F2 C2 | F2 F2 F2 E2 | D2 D2 C2 C2 | C2 C2 C2 C2 | C2 =B,2 C4 | E2 E2 E2 D2 | %7
 D2 G2 F2 C2 |1 F2 FE D2 E2 | F2 D2 C2 C2 | C2 E2 FE F2 | F2 E2 C4 |] %12
V:3
 A,2 A,2 G,2 A,2 | D2 C2 C2 A,2 | C2 C2 C2 C2 | A,2 G,2 G,2 E,2 | E,2 G,2 F,2 A,2 | G,2 G,2 E,4 | %6
 C2 C2 C2 A,2 | G,2 C2 C2 A,2 |1 C2 DC =B,2 C2 | A,2 G,2 G,2 E,2 | F,2 C2 C2 CD | C2 CB, A,4 |] %12
V:4
 F,2 F,2 E,2 F,2 | F,2 E,2 F,2 F,,2 | F,,2 A,,2 C,2 C,2 | D,2 =B,,2 C,2 C,2 | C,2 E,2 F,2 D,2 | %5
 G,2 G,,2 C,4 | C,2 C2 A,2 ^F,2 | G,2 E,2 F,2 F,,2 |1 F,2 F,2 F,2 E,C, | D,2 =B,,2 C,2 C,2 | %10
 A,,2 C,2 F,,G,, A,,B,, | C,2 C,2 F,,4 |] %12

